X:129
T:Captain White
T:Dance
S:John Moore's Book 2
Z:Transcribed by Edmund Spriggs 05/2021
%%VWML: Moore1-4494-p99-0
F:http://www.vwml.org/record/Moore2/4494/p99
M:6/8
N:The last crotchet should be dotted.
N:The words "Tune playd straight through" appear at the end of the tune.
L:1/8
K:D
fefg2e|f2dA2d|B2dA2d|agf f2e|
fef g2e|f2dA2d|B2dA2f|aged3|]
[|d2D DFA|B2Ad2A|d2D DFA|B2AA3|
d2D DFA|B2Ad2A|Agf edc|d3-d3|]
[|f^ef d2B|^A2fd2B|f^ef d2B|^A2ce3|
f^ef d2B|^A2g gf=e|fdB fec|B3-B2|]
W:Tune play'd straight through

